X:40
T:Laird o' Drumblair, The
M:C
L:1/8
R:Strathspey
N:"(Play with) Fire and force"
C:J. Scott Skinner
B:Harp and Claymore Collection
Z:AK/Fiddler's Companion
Q:172
K:A
E | "A"{G}[A2A2] c>A E<A c>A | "A"{^g}a2 g>a f>ae>c | "D"(3.d.e.f (3.e.f.g "A"(3.a.e.d (3.c.B.A | "Bm"(3.B.c.d (3.c.B.A "E"(3.G.F.E (3.d.c.B |
"A"{G}[A2A2] c>A E<A c>A | "A"{^g}a2 g>a f>ae>c | "D"(3.d.e.f (3.e.f.g "A"(3.a.e.d (3.c.B.A |"E" (3GFE (3dcB "A"{G}[A2A2] A :|
|: e | "A"{g}a2 e>a c>aA>a | "A"c/B/A e>g "F#m7"a>A c<a | "Bm"{^a}b2 f>b d>fB>f | "Bm"d/c/B f>B "E"{^a}g>B d<b |
"A"{g}a2 e>a c>a A>a | "A"c/B/A e>g a>Ac>e | "D"(3.d.e.f (3.e.f.g "A"(3.a.e.d (3.c.B.A | "E"(3GFE (3dcB "A"{G}[A2A2] [EA] :|

